icons/git/branch.svg

<svg width="32" height="32" viewBox="0 0 32 32" fill="none" xmlns="http://www.w3.org/2000/svg">
<path fill-rule="evenodd" clip-rule="evenodd" d="M23.5 4.00002C22.1193 4.00002 21 5.1193 21 6.50002C21 7.88073 22.1193 9.00002 23.5 9.00002C24.8807 9.00002 26 7.88073 26 6.50002C26 5.1193 24.8807 4.00002 23.5 4.00002ZM19 6.50002C19 4.01473 21.0147 2.00002 23.5 2.00002C25.9853 2.00002 28 4.01473 28 6.50002C28 8.6416 26.504 10.4338 24.5 10.8885V13C24.5 15.7614 22.2614 18 19.5 18H12.5C10.8431 18 9.5 19.3432 9.5 21V21.1115C11.504 21.5663 13 23.3584 13 25.5C13 27.9853 10.9853 30 8.5 30C6.01472 30 4 27.9853 4 25.5C4 23.3584 5.49601 21.5663 7.5 21.1115V21V10.8885C5.49601 10.4338 4 8.6416 4 6.50002C4 4.01473 6.01472 2.00002 8.5 2.00002C10.9853 2.00002 13 4.01473 13 6.50002C13 8.6416 11.504 10.4338 9.5 10.8885V16.9996C10.3357 16.372 11.3744 16 12.5 16H19.5C21.1569 16 22.5 14.6569 22.5 13V10.8885C20.496 10.4338 19 8.6416 19 6.50002ZM8.5 9.00002C7.11929 9.00002 6 7.88073 6 6.50002C6 5.1193 7.11929 4.00002 8.5 4.00002C9.88071 4.00002 11 5.1193 11 6.50002C11 7.88073 9.88071 9.00002 8.5 9.00002ZM6 25.5C6 24.1193 7.11929 23 8.5 23C9.88071 23 11 24.1193 11 25.5C11 26.8807 9.88071 28 8.5 28C7.11929 28 6 26.8807 6 25.5Z" fill="black"/>
</svg>

<svg width="32" height="32" viewBox="0 0 32 32" xmlns="http://www.w3.org/2000/svg">
    <path fill-rule="evenodd" d="M23.5 4a2.5 2.5 0 100 5 2.5 2.5 0 000-5zM19 6.5a4.5 4.5 0 115.5 4.389V13a5 5 0 01-5 5h-7a3 3 0 00-3 3v.111A4.502 4.502 0 018.5 30a4.5 4.5 0 01-1-8.889V10.89A4.502 4.502 0 018.5 2a4.5 4.5 0 011 8.889v6.11c.836-.627 1.874-.999 3-.999h7a3 3 0 003-3v-2.111A4.502 4.502 0 0119 6.5zM8.5 9a2.5 2.5 0 110-5 2.5 2.5 0 010 5zM6 25.5a2.5 2.5 0 115 0 2.5 2.5 0 01-5 0z"/>
</svg>
